packages/core/src/svgs/orbs.svg

<svg width="24" height="24" viewBox="0 0 24 24" fill="none" xmlns="http://www.w3.org/2000/svg">
<g clip-path="url(#clip0_31_15554)">
<path d="M0 0H24V24H0V0Z" fill="#F0F3FA"/>
<path d="M9.08592 13.9156C9.08363 13.9471 9.07172 13.9772 9.05179 14.0017C9.03186 14.0262 9.00488 14.0441 8.9745 14.0527C8.94428 14.0616 8.91207 14.0611 8.88219 14.0511C8.85231 14.0411 8.82619 14.0223 8.80735 13.997L6.58307 11.9142C6.55686 11.8952 6.53657 11.8692 6.52452 11.8392C6.51248 11.8091 6.50918 11.7763 6.51501 11.7445C6.52084 11.7126 6.53555 11.6831 6.55746 11.6593C6.57936 11.6355 6.60755 11.6184 6.63878 11.6099L9.7545 10.3585C9.89592 10.3027 9.98592 10.3756 9.94735 10.5299L9.08592 13.9156Z" fill="#404A72"/>
<path d="M7.24302 15.8955C7.1273 15.9984 7.0073 15.9555 6.98159 15.8012L6.37302 12.4155C6.3473 12.2612 6.41587 12.2227 6.53159 12.3298L8.64444 14.3098C8.67192 14.3342 8.69376 14.3642 8.70845 14.3979C8.72315 14.4315 8.73033 14.468 8.72952 14.5047C8.7287 14.5414 8.7199 14.5775 8.70373 14.6104C8.68756 14.6434 8.6644 14.6724 8.63587 14.6955L7.2473 15.8955H7.24302ZM9.79302 9.68553C9.81674 9.70886 9.83403 9.73793 9.8432 9.76991C9.85236 9.80189 9.8531 9.83571 9.84534 9.86806C9.83757 9.90041 9.82157 9.93021 9.79888 9.95455C9.7762 9.97889 9.7476 9.99694 9.71587 10.007L6.62159 11.2498C6.47587 11.3098 6.39873 11.237 6.45444 11.0912L7.7273 7.6541C7.7321 7.62242 7.74665 7.59302 7.76892 7.56997C7.79119 7.54693 7.82008 7.5314 7.85159 7.52553C7.88273 7.52065 7.91463 7.52542 7.94298 7.53922C7.97133 7.55301 7.99478 7.57515 8.01016 7.60267L9.79302 9.68553ZM6.54873 15.3212C6.57873 15.4755 6.53159 15.4927 6.45016 15.3641L5.24587 13.4955C5.20322 13.4238 5.18179 13.3414 5.18407 13.258C5.18634 13.1745 5.21223 13.0934 5.25873 13.0241L5.79444 12.3041C5.88873 12.1755 5.99159 12.2012 6.0173 12.3555L6.54873 15.3212ZM6.17159 10.8812C6.11587 11.027 6.03444 11.027 5.98302 10.8812L5.57587 9.63839C5.55368 9.55748 5.55308 9.47217 5.57414 9.39095C5.59519 9.30974 5.63716 9.23547 5.69587 9.17553L7.15302 7.84267C7.27302 7.73982 7.32444 7.76982 7.26873 7.91982L6.17159 10.877V10.8812ZM5.78587 11.357C5.8083 11.4409 5.81264 11.5286 5.7986 11.6143C5.78456 11.7 5.75247 11.7817 5.70444 11.8541L5.28873 12.4284C5.19444 12.557 5.13016 12.5312 5.1473 12.3727L5.34444 10.4055C5.36159 10.2512 5.41302 10.2427 5.46444 10.3927L5.78587 11.3612V11.357ZM7.43587 6.92982C7.49159 6.98982 7.43587 7.12696 7.32016 7.2341L6.66016 7.8341C6.54444 7.93267 6.52302 7.91982 6.6173 7.79125L7.16587 7.04982C7.26444 6.92125 7.38444 6.8741 7.43587 6.92982ZM11.5887 17.3912C11.5765 17.4215 11.5559 17.4477 11.5294 17.4667C11.5028 17.4857 11.4713 17.4967 11.4387 17.4984C11.4067 17.4991 11.3751 17.4906 11.3477 17.4739C11.3204 17.4572 11.2984 17.433 11.2844 17.4041L9.57016 14.8884C9.54726 14.8666 9.53162 14.8382 9.52535 14.8073C9.51908 14.7763 9.5225 14.7441 9.53512 14.7151C9.54775 14.6861 9.56898 14.6617 9.59595 14.6451C9.62291 14.6286 9.6543 14.6208 9.68587 14.6227L13.1444 14.2627C13.2987 14.2455 13.3587 14.3441 13.2816 14.477L11.5887 17.3912ZM10.8687 17.3955C10.9544 17.5241 10.9116 17.5884 10.7573 17.5412L7.52587 16.427C7.37587 16.3841 7.35444 16.2555 7.47016 16.1527L8.85444 14.9527C8.88074 14.9279 8.91213 14.9092 8.94641 14.8977C8.9807 14.8863 9.01706 14.8825 9.05296 14.8866C9.08886 14.8907 9.12344 14.9026 9.15429 14.9214C9.18514 14.9402 9.21152 14.9655 9.23159 14.9955L10.8687 17.3955Z" fill="#556195"/>
<path d="M13.213 13.6799C13.3158 13.7956 13.273 13.907 13.1144 13.9242L9.60439 14.2885C9.58015 14.2934 9.55516 14.2934 9.53092 14.2885C9.50667 14.2836 9.48367 14.2738 9.46327 14.2598C9.44288 14.2459 9.42551 14.2279 9.4122 14.207C9.39889 14.1862 9.38992 14.1629 9.38582 14.1385C9.37985 14.1054 9.38281 14.0714 9.39439 14.0399L10.273 10.607C10.3115 10.4528 10.4272 10.427 10.5301 10.547L13.213 13.6756V13.6799Z" fill="#6ECCE0"/>
<path d="M15.7328 16.6199C15.7592 16.6393 15.7788 16.6666 15.7886 16.6978C15.7985 16.7291 15.7981 16.7627 15.7876 16.7937C15.7771 16.8247 15.757 16.8516 15.7302 16.8704C15.7034 16.8893 15.6713 16.8991 15.6386 16.8985L12.0728 17.6528C11.9186 17.6828 11.8586 17.6013 11.9357 17.4642L13.62 14.567C13.6344 14.5375 13.6562 14.5122 13.6832 14.4934C13.7102 14.4747 13.7416 14.4631 13.7743 14.4599C13.8071 14.4566 13.8402 14.4621 13.8703 14.4756C13.9004 14.4891 13.9264 14.5103 13.9457 14.537L15.7328 16.6199ZM9.99427 18.557C9.91972 18.5924 9.8367 18.6059 9.75479 18.596C9.67289 18.5862 9.59544 18.5533 9.53141 18.5013L7.87284 17.027C7.75713 16.9285 7.78284 16.8813 7.92855 16.9285L10.7571 17.897C10.9071 17.9485 10.9157 18.047 10.7786 18.1242L9.99427 18.5528V18.557ZM13.8428 18.6942C13.7758 18.7437 13.6969 18.7745 13.6141 18.7835C13.5313 18.7925 13.4475 18.7795 13.3714 18.7456L12.2186 18.1542C12.0771 18.0813 12.09 17.9956 12.2443 17.9656L15.3171 17.3142C15.4714 17.2799 15.4971 17.3356 15.3771 17.4342L13.8428 18.6942ZM10.6243 18.7713C10.4657 18.7628 10.4528 18.6942 10.59 18.6213L11.2071 18.2828C11.286 18.2453 11.3722 18.2255 11.4595 18.2247C11.5469 18.224 11.6333 18.2423 11.7128 18.2785L12.6171 18.7413C12.7586 18.8099 12.7457 18.8656 12.5871 18.857L10.6243 18.7713ZM16.3071 17.2928C16.3586 17.3528 16.29 17.4642 16.1528 17.537L15.3386 17.9742C15.1971 18.047 15.1843 18.0256 15.3043 17.9313L15.99 17.3613C16.1143 17.2628 16.2557 17.2328 16.3071 17.2928Z" fill="#556195"/>
<path d="M14.25 13.6416C14.1042 13.7016 14.0142 13.6244 14.0571 13.4701L14.9185 10.0844C14.9214 10.0531 14.9335 10.0233 14.9534 9.99889C14.9732 9.97447 14.9999 9.9565 15.03 9.94728C15.0608 9.93742 15.0939 9.9375 15.1247 9.9475C15.1554 9.95749 15.1823 9.97691 15.2014 10.003L17.4214 12.0901C17.4423 12.1035 17.4599 12.1213 17.4731 12.1423C17.4862 12.1633 17.4945 12.187 17.4974 12.2116C17.5002 12.2362 17.4976 12.2611 17.4897 12.2846C17.4817 12.3081 17.4686 12.3295 17.4514 12.3473C17.4276 12.3696 17.3978 12.3845 17.3657 12.3901L14.25 13.6416Z" fill="#404A72"/>
<path d="M17.627 11.5887C17.657 11.743 17.5842 11.7815 17.4727 11.6744L15.3599 9.6901C15.3329 9.66606 15.3114 9.63651 15.2967 9.60345C15.2821 9.57038 15.2748 9.53456 15.2752 9.49841C15.2756 9.46227 15.2837 9.42662 15.2991 9.39389C15.3144 9.36116 15.3366 9.3321 15.3642 9.30868L16.7527 8.10868C16.8727 8.00582 16.9927 8.04439 17.0185 8.19868L17.627 11.5844V11.5887ZM16.2727 16.3501C16.2671 16.381 16.2522 16.4095 16.23 16.4317C16.2078 16.4539 16.1794 16.4688 16.1485 16.4744C16.1178 16.4797 16.0862 16.4755 16.0579 16.4625C16.0296 16.4495 16.0059 16.4283 15.9899 16.4015L14.207 14.3144C14.1822 14.2912 14.164 14.2618 14.1542 14.2293C14.1444 14.1968 14.1434 14.1622 14.1512 14.1292C14.159 14.0961 14.1754 14.0657 14.1988 14.041C14.2221 14.0164 14.2516 13.9983 14.2842 13.9887L17.3827 12.7458C17.5242 12.6858 17.597 12.7587 17.5456 12.9087L16.2727 16.3501ZM18.7542 10.5044C18.7963 10.5763 18.8175 10.6586 18.8152 10.7419C18.8129 10.8253 18.7873 10.9063 18.7413 10.9758L18.2013 11.6958C18.1113 11.8244 18.0085 11.7987 17.9827 11.6444L17.4513 8.68296C17.4213 8.52868 17.4685 8.51153 17.5499 8.6401L18.7542 10.5044ZM18.4285 14.3615C18.4507 14.4424 18.4512 14.5278 18.4302 14.609C18.4091 14.6902 18.3672 14.7645 18.3085 14.8244L16.8427 16.1572C16.727 16.2601 16.6799 16.2301 16.7313 16.0844L17.8285 13.123C17.8799 12.973 17.9656 12.973 18.017 13.123L18.4285 14.3658V14.3615ZM18.6513 13.5987C18.6385 13.753 18.5827 13.7615 18.5356 13.6115L18.2142 12.643C18.1917 12.5591 18.1874 12.4713 18.2014 12.3856C18.2155 12.2999 18.2476 12.2182 18.2956 12.1458L18.7156 11.5758C18.8056 11.4515 18.8699 11.4772 18.8527 11.6315L18.6513 13.5987ZM16.8256 16.9501C16.7356 17.0787 16.6156 17.1301 16.5642 17.0701C16.5085 17.0101 16.5642 16.873 16.6799 16.7658L17.3356 16.1658C17.4513 16.063 17.4727 16.0801 17.3785 16.2044L16.8256 16.9501Z" fill="#556195"/>
<path d="M14.4342 9.11578C14.4559 9.1381 14.4703 9.16645 14.4755 9.19711C14.4808 9.22776 14.4767 9.25929 14.4637 9.28756C14.4507 9.31583 14.4295 9.33951 14.4028 9.35551C14.3762 9.37151 14.3453 9.37907 14.3142 9.3772L10.8599 9.7372C10.7014 9.75435 10.6414 9.65578 10.7185 9.52292L12.4114 6.60863C12.4234 6.57882 12.4437 6.5531 12.47 6.53455C12.4962 6.516 12.5273 6.50541 12.5594 6.50406C12.5915 6.5027 12.6233 6.51063 12.651 6.5269C12.6787 6.54316 12.7012 6.56708 12.7157 6.59578L14.4342 9.11578Z" fill="#404A72"/>
<path d="M15.1499 9.0514C15.123 9.07576 15.0911 9.09395 15.0565 9.10469C15.0218 9.11542 14.9853 9.11845 14.9493 9.11354C14.9134 9.10864 14.8789 9.09594 14.8484 9.07632C14.8179 9.0567 14.7921 9.03064 14.7727 8.99997L13.127 6.60426C13.0413 6.47568 13.0884 6.4114 13.2384 6.46283L16.4699 7.56854C16.6199 7.61997 16.6413 7.74426 16.5256 7.84711L15.1499 9.04711V9.0514ZM13.7227 13.3971C13.6842 13.5471 13.5727 13.5728 13.4656 13.4571L10.787 10.3243C10.6842 10.2043 10.727 10.0928 10.8899 10.0757L14.3956 9.7114C14.4198 9.70645 14.4448 9.70644 14.4691 9.71136C14.4933 9.71627 14.5163 9.72602 14.5367 9.74002C14.5571 9.75402 14.5745 9.77198 14.5878 9.79283C14.6011 9.81368 14.6101 9.837 14.6142 9.8614C14.6227 9.89568 14.6184 9.92997 14.6056 9.95997L13.7227 13.3971ZM10.3799 9.43283C10.3693 9.45597 10.3542 9.47679 10.3355 9.49408C10.3168 9.51136 10.2948 9.52478 10.2709 9.53354C10.247 9.54231 10.2216 9.54625 10.1962 9.54515C10.1708 9.54405 10.1458 9.53792 10.1227 9.52711C10.0934 9.51225 10.0683 9.49012 10.0499 9.46283L8.26701 7.37997C8.24237 7.36006 8.22445 7.33305 8.21569 7.3026C8.20693 7.27216 8.20775 7.23975 8.21805 7.20979C8.22835 7.17983 8.24763 7.15377 8.27325 7.13514C8.29888 7.11652 8.32962 7.10623 8.3613 7.10568L11.927 6.3514C12.0813 6.31711 12.1413 6.40283 12.0642 6.53568L10.3799 9.43283ZM13.2342 6.10283C13.0884 6.0514 13.0799 5.94854 13.217 5.8714L14.0056 5.44711C14.0807 5.4109 14.1645 5.3969 14.2473 5.40677C14.3301 5.41664 14.4083 5.44997 14.4727 5.50283L16.127 6.97283C16.2427 7.07569 16.217 7.12283 16.0713 7.07568L13.2342 6.10283ZM8.68701 6.68568C8.53701 6.71997 8.50701 6.66854 8.6313 6.56568L10.157 5.30568C10.224 5.25623 10.303 5.22541 10.3858 5.21638C10.4686 5.20734 10.5523 5.22041 10.6284 5.25426L11.7856 5.84997C11.927 5.91854 11.9142 6.00426 11.7642 6.03426L8.68701 6.68568ZM12.7927 5.71711C12.7138 5.7546 12.6277 5.7744 12.5403 5.77514C12.453 5.77588 12.3665 5.75754 12.287 5.7214L11.3784 5.25854C11.2499 5.18997 11.2584 5.13854 11.417 5.14283L13.3799 5.23283C13.5342 5.24568 13.5513 5.30997 13.4099 5.38283L12.7927 5.71711ZM8.00558 6.63854C7.88558 6.7414 7.74844 6.76711 7.69273 6.7114C7.6413 6.6514 7.70987 6.53997 7.84701 6.46283L8.6613 6.02568C8.80273 5.95283 8.81559 5.97426 8.69559 6.07283L8.00987 6.63854H8.00558ZM6.96416 16.59C7.02416 16.5385 7.15701 16.59 7.26416 16.7057L7.86416 17.37C7.96273 17.4857 7.94987 17.5071 7.8213 17.4128L7.08416 16.8557C6.95558 16.7657 6.89987 16.6414 6.96416 16.59ZM17.2584 7.66711C17.3184 7.61568 17.4299 7.68426 17.5027 7.82568L17.9399 8.63997C18.0127 8.7814 17.9913 8.79426 17.8927 8.67426L17.3313 7.98426C17.2327 7.85997 17.2027 7.71854 17.2584 7.66711ZM16.9199 7.14426C17.0484 7.23854 17.0999 7.35854 17.0399 7.40997C16.9799 7.4614 16.8427 7.40997 16.7356 7.29426L16.1356 6.62997C16.037 6.51426 16.0499 6.49711 16.1784 6.58711L16.9199 7.14426ZM6.66844 16.0157C6.7713 16.14 6.79701 16.2814 6.7413 16.3328C6.6813 16.3843 6.56987 16.3157 6.49701 16.1785L6.05987 15.3557C5.98701 15.2185 6.00844 15.2057 6.10701 15.3257L6.66844 16.0157Z" fill="#556195"/>
</g>
<defs>
<clipPath id="clip0_31_15554">
<rect width="24" height="24" fill="white"/>
</clipPath>
</defs>
</svg>

<svg xmlns="http://www.w3.org/2000/svg" width="24" height="24" fill="none" viewBox="0 0 24 24"><g clip-path="url(#a)"><path fill="#F0F3FA" d="M0 0h24v24H0z"/><path fill="#404A72" d="M9.086 13.916a.154.154 0 0 1-.204.135.15.15 0 0 1-.075-.054l-2.224-2.083a.172.172 0 0 1 .056-.304l3.116-1.251c.14-.056.23.017.192.17z"/><path fill="#556195" d="M7.243 15.896c-.116.102-.236.06-.261-.095l-.609-3.386c-.026-.154.043-.192.159-.085l2.112 1.98a.253.253 0 0 1-.008.385l-1.389 1.2zm2.55-6.21a.193.193 0 0 1-.077.321L6.622 11.25c-.146.06-.223-.013-.168-.159l1.273-3.437a.15.15 0 0 1 .125-.128.15.15 0 0 1 .158.077zM6.549 15.32c.03.155-.017.172-.099.043l-1.204-1.869a.44.44 0 0 1 .013-.47l.535-.72c.095-.13.198-.104.223.05zm-.377-4.44c-.056.146-.138.146-.189 0l-.407-1.243a.48.48 0 0 1 .12-.462l1.457-1.333c.12-.103.171-.073.116.077l-1.097 2.957zm-.386.476a.61.61 0 0 1-.082.497l-.415.574c-.095.129-.159.103-.142-.055l.197-1.967c.018-.155.069-.163.12-.013l.322.968zm1.65-4.427c.056.06 0 .197-.116.304l-.66.6c-.116.099-.137.086-.043-.043l.549-.741c.098-.129.218-.176.27-.12m4.153 10.461a.17.17 0 0 1-.15.107.17.17 0 0 1-.155-.094L9.57 14.888a.155.155 0 0 1 .116-.265l3.458-.36c.155-.018.215.081.138.214zm-.72.005c.085.128.043.192-.112.145l-3.231-1.114c-.15-.043-.172-.171-.056-.274l1.384-1.2a.25.25 0 0 1 .378.043z"/><path fill="#6ECCE0" d="M13.213 13.68c.103.116.06.227-.099.244l-3.51.365a.185.185 0 0 1-.21-.25l.879-3.432c.039-.154.154-.18.257-.06l2.683 3.129z"/><path fill="#556195" d="M15.733 16.62a.154.154 0 0 1-.094.278l-3.566.755c-.154.03-.214-.052-.137-.189l1.684-2.897a.193.193 0 0 1 .25-.091q.045.02.076.061zm-5.739 1.937a.44.44 0 0 1-.463-.056l-1.658-1.474c-.116-.099-.09-.146.056-.099l2.828.969c.15.052.159.15.022.227l-.785.429zm3.849.137a.47.47 0 0 1-.472.052l-1.152-.592c-.142-.073-.129-.158.025-.188l3.073-.652c.154-.034.18.022.06.12zm-3.219.077c-.158-.008-.171-.077-.034-.15l.617-.338a.6.6 0 0 1 .506-.005l.904.463c.142.069.129.125-.03.116zm5.683-1.478c.052.06-.017.171-.154.244l-.814.437c-.142.073-.155.052-.035-.043l.686-.57c.124-.098.266-.128.317-.068"/><path fill="#404A72" d="M14.25 13.642c-.146.06-.236-.018-.193-.172l.861-3.386a.158.158 0 0 1 .283-.081l2.22 2.087a.17.17 0 0 1 .069.195.2.2 0 0 1-.039.062.17.17 0 0 1-.085.043z"/><path fill="#556195" d="M17.627 11.589c.03.154-.043.192-.154.085L15.36 9.69a.25.25 0 0 1-.06-.296.3.3 0 0 1 .064-.085l1.389-1.2c.12-.103.24-.065.265.09l.609 3.385zm-1.354 4.761a.15.15 0 0 1-.125.124.15.15 0 0 1-.158-.073l-1.783-2.087a.193.193 0 0 1 .077-.325l3.099-1.243c.141-.06.214.013.163.163zm2.481-5.846a.45.45 0 0 1-.013.472l-.54.72c-.09.128-.192.103-.218-.052l-.532-2.961c-.03-.154.017-.171.099-.043zm-.326 3.858a.48.48 0 0 1-.12.462l-1.465 1.333c-.116.103-.163.073-.112-.073l1.097-2.961c.052-.15.138-.15.189 0l.412 1.243zm.223-.763c-.012.154-.068.162-.115.012l-.322-.968a.61.61 0 0 1 .082-.497l.42-.57c.09-.125.154-.099.137.056zm-1.825 3.351c-.09.129-.21.18-.262.12-.055-.06 0-.197.116-.304l.656-.6c.115-.103.137-.086.043.038z"/><path fill="#404A72" d="M14.434 9.116a.15.15 0 0 1 .03.172.15.15 0 0 1-.15.09l-3.454.36c-.159.016-.219-.082-.141-.215l1.692-2.914a.167.167 0 0 1 .305-.013z"/><path fill="#556195" d="M15.15 9.051A.25.25 0 0 1 14.773 9l-1.646-2.396c-.086-.128-.039-.193.111-.141l3.232 1.106c.15.051.171.175.056.278l-1.376 1.2zm-1.427 4.346c-.039.15-.15.176-.257.06l-2.679-3.133c-.103-.12-.06-.231.103-.248l3.506-.365a.184.184 0 0 1 .218.15.16.16 0 0 1-.008.099zM10.38 9.433a.193.193 0 0 1-.257.094.2.2 0 0 1-.073-.064L8.267 7.38a.154.154 0 0 1 .094-.274l3.566-.755c.154-.034.214.052.137.185zm2.854-3.33c-.146-.052-.154-.154-.017-.232l.789-.424a.44.44 0 0 1 .467.056l1.654 1.47c.116.103.09.15-.056.103zm-4.547.583c-.15.034-.18-.017-.056-.12l1.526-1.26a.47.47 0 0 1 .471-.052l1.158.596c.141.069.128.154-.022.184zm4.106-.969a.6.6 0 0 1-.506.004l-.909-.462c-.128-.069-.12-.12.039-.116l1.963.09c.154.013.171.077.03.15zm-4.787.922c-.12.102-.258.128-.313.072-.052-.06.017-.171.154-.248l.814-.437c.142-.073.155-.052.035.047l-.686.566zM6.964 16.59c.06-.052.193 0 .3.116l.6.664c.099.116.086.137-.043.043l-.737-.557c-.128-.09-.184-.215-.12-.266m10.294-8.923c.06-.051.172.017.245.159l.437.814c.073.141.051.154-.047.034l-.562-.69c-.098-.124-.128-.265-.073-.317m-.338-.523c.128.095.18.215.12.266s-.197 0-.304-.116l-.6-.664c-.099-.116-.086-.133.042-.043zM6.668 16.016c.103.124.129.265.073.317-.06.051-.171-.017-.244-.154l-.437-.823c-.073-.137-.052-.15.047-.03z"/></g><defs><clipPath id="a"><path fill="#fff" d="M0 0h24v24H0z"/></clipPath></defs></svg>
